X:1
T:Wallpaper Roses
T:Wallpaper Roses
T:Harold Spina and Don Robertson
C:Harold Spina, Don Robertson
Z:All Rights Reserved
L:1/4
M:2/2
K:Bb
V:1 treble 
%%MIDI program 4
V:1
 z"F7" A B c |:"Bb" d2 d"F7" c |"Bb" B F3 |"Eb" E3/2 D/ E3/2 F/ | G3"E7" z |"F7" z A A"Cm" B | %6
w: I'm count- ing|wall- pa- per|ros- es-|all a- round the|room|wall- pa- per|
"F7" c F3 |"Cm7" z3"F7" (3A/E/G/ |"Bb" F D E F |"Eb" G B2 G | c B3 |"Bb" z3 (3F/D/G/ | F4 | %13
w: ros- es|fad- ed with|gloom I've been so|heart- sick and|lone- ly|watch- ing the|door|
"C7" z =E E"Gm7" F |"C7" G C3 |"F7" z F F"Cm" G |"F7" A A"Cm" B"F7" c |"Bb" d2 d"F7" c |"Bb" B F3 | %19
w: cry- ing my|heart out|pac- ing the|floor and count- ing|wall- pa- per|ros- es|
"Eb" E/ E B,/ E/ E F/ | G3"E7" ^G |"F7" A A2"Cm7" B |"F7" c F3 | z z A (3A/E/G/ | %24
w: o- ver and o- ver a|gain I've|count- ed two|thous- and|six hun- dred and|
"Bb" F2 z"Bb7" (3D/E/F/ |"Eb" G3/2 B/ B2 | z B A G |"Bb" F3/2 B/ d2 | z d"Cm7" c"Bb" B | %29
w: ten you are the|on- ly one|come back and|bring the sun,|and make my|
"Eb" c2"Cm7" c d |"F7" e F d3/2 c/ |1"Bb" B4 |"F7" z A"Cm7" B"F7" c :|2"Bb" B4- | B4 |] %35
w: wall- pa- per|ros- es bloom a-|gain.|I'm count- ing|gain!||

